resources/icons/20px/high-voltage-pole.svg

<svg width="20" height="20" viewBox="0 0 20 20" fill="none" xmlns="http://www.w3.org/2000/svg">
<path d="M7 0L13 0C13.2652 0 13.5196 0.105357 13.7071 0.292893C13.8946 0.48043 14 0.734784 14 1V4H16V2C15.7348 2 15.4804 1.89464 15.2929 1.70711C15.1054 1.51957 15 1.26522 15 1C15 0.734784 15.1054 0.48043 15.2929 0.292893C15.4804 0.105357 15.7348 0 16 0L19 0C19.2652 0 19.5196 0.105357 19.7071 0.292893C19.8946 0.48043 20 0.734784 20 1C20 1.26522 19.8946 1.51957 19.7071 1.70711C19.5196 1.89464 19.2652 2 19 2H18V4H19C19.2652 4 19.5196 4.10536 19.7071 4.29289C19.8946 4.48043 20 4.73478 20 5C20 5.26522 19.8946 5.51957 19.7071 5.70711C19.5196 5.89464 19.2652 6 19 6H18V8H19C19.2652 8 19.5196 8.10536 19.7071 8.29289C19.8946 8.48043 20 8.73478 20 9C20 9.26522 19.8946 9.51957 19.7071 9.70711C19.5196 9.89464 19.2652 10 19 10H16C15.7348 10 15.4804 9.89464 15.2929 9.70711C15.1054 9.51957 15 9.26522 15 9C15 8.73478 15.1054 8.48043 15.2929 8.29289C15.4804 8.10536 15.7348 8 16 8V6H14V19C14.0002 19.2321 13.9197 19.4571 13.7722 19.6364C13.6246 19.8156 13.4194 19.938 13.1915 19.9824C12.9637 20.0269 12.7274 19.9907 12.5234 19.88C12.3193 19.7694 12.1601 19.5912 12.073 19.376L10 14.54L7.928 19.374C7.84141 19.5897 7.68239 19.7685 7.47829 19.8796C7.27418 19.9908 7.03773 20.0274 6.80957 19.9831C6.5814 19.9389 6.37578 19.8165 6.22804 19.6371C6.0803 19.4577 5.99967 19.2324 6 19V6H4V8C4.26522 8 4.51957 8.10536 4.70711 8.29289C4.89464 8.48043 5 8.73478 5 9C5 9.26522 4.89464 9.51957 4.70711 9.70711C4.51957 9.89464 4.26522 10 4 10H1C0.734784 10 0.48043 9.89464 0.292893 9.70711C0.105357 9.51957 0 9.26522 0 9C0 8.73478 0.105357 8.48043 0.292893 8.29289C0.48043 8.10536 0.734784 8 1 8H2V6H1C0.734784 6 0.48043 5.89464 0.292893 5.70711C0.105357 5.51957 0 5.26522 0 5C0 4.73478 0.105357 4.48043 0.292893 4.29289C0.48043 4.10536 0.734784 4 1 4H2V2H1C0.734784 2 0.48043 1.89464 0.292893 1.70711C0.105357 1.51957 0 1.26522 0 1C0 0.734784 0.105357 0.48043 0.292893 0.292893C0.48043 0.105357 0.734784 0 1 0L4 0C4.26522 0 4.51957 0.105357 4.70711 0.292893C4.89464 0.48043 5 0.734784 5 1C5 1.26522 4.89464 1.51957 4.70711 1.70711C4.51957 1.89464 4.26522 2 4 2V4H6V1C6 0.734784 6.10536 0.48043 6.29289 0.292893C6.48043 0.105357 6.73478 0 7 0ZM8 2V4H12V2H8ZM12 14.128V9.872L11.088 12L12 14.128ZM8.516 6L10 9.462L11.483 6H8.516ZM8.912 12L8 9.872V14.128L8.912 12Z" fill="black"/>
</svg>

<svg xmlns="http://www.w3.org/2000/svg" viewBox="0 0 20 20">
  <path d="M7 0h6a1 1 0 0 1 1 1v3h2V2a1 1 0 1 1 0-2h3a1 1 0 1 1 0 2h-1v2h1a1 1 0 1 1 0 2h-1v2h1a1 1 0 1 1 0 2h-3a1 1 0 1 1 0-2V6h-2v13a1 1 0 0 1-1.927.376L10 14.54l-2.072 4.834A1 1 0 0 1 6 19V6H4v2a1 1 0 0 1 0 2H1a1 1 0 0 1 0-2h1V6H1a1 1 0 0 1 0-2h1V2H1a1 1 0 0 1 0-2h3a1 1 0 0 1 0 2v2h2V1a1 1 0 0 1 1-1m1 2v2h4V2zm4 12.128V9.872L11.088 12zM8.516 6 10 9.462 11.483 6zm.396 6L8 9.872v4.256z"/>
</svg>
